Origami/16x16/apps/distributor-logo-freebsd.svg

<svg width="16" height="16" version="1.1" viewBox="0 0 16 16" xmlns="http://www.w3.org/2000/svg">
 <path d="m3.0052445 0.01636059c-0.3694106-0.03248656-0.7932913-0.03085049-1.2818055 0.1406357-0.4966643 0.17434727-1.0195164 0.58282292-1.3090779 1.0430483-0.52084808 0.8279904-0.41469534 1.2923564-0.38571045 1.74818 0.02898489 0.4558235 0.1213627 0.8838881 0.27077653 1.3262728 0.29785637 0.8819416 0.8213693 1.7182819 1.312974 2.5197233-0.2488132 0.7254362-0.5926575 1.4280944-0.59415 2.2013396v0.00391c0 3.8425927 3.149463 7.0005297 6.9817489 7.0005297s6.9817489-3.157937 6.9817489-7.0005332c3e-6 -0.00195 3e-6 -0.00391 0-0.00586-0.0023-0.773686-0.346229-1.4757904-0.596098-2.2013389 0.491654-0.801133 1.016932-1.6354329 1.314922-2.51777 0.149413-0.4423832 0.241792-0.8704487 0.270777-1.3262728 0.02898-0.4558242 0.135144-0.920187-0.385711-1.74818-0.289561-0.46022604-0.812413-0.86870073-1.309078-1.0430483-0.488515-0.1714865-0.912395-0.17312226-1.281806-0.1406357-0.328038 0.02440702-0.548066 0.07920522-0.705187 0.11524315-0.0072 0.001263-0.01429 0.002565-0.02142 0.003906-1.270828 0.30651768-2.5335545 0.98024166-3.7869798 1.8224048-0.023865 0.016019-0.052964 0.067491-0.077921 0.08399-0.1337667-0.00804-0.2652008-0.042663-0.399351-0.042972-0.00519-2.03e-5 -0.01039-2.03e-5 -0.015584 0-0.1318031 7.854e-4 -0.2601508 0.0366749-0.3915548 0.0449258-0.0254219-0.0169068-0.0536321-0.0696394-0.0779213-0.085944-1.2534254-0.8421635-2.5161517-1.5158871-3.7869754-1.8224045-0.0071357-0.00134127-0.0142785-0.00264347-0.0214283-0.00390654-0.15712-0.03603747-0.377149-0.09083612-0.7051879-0.11524315z" style="fill:#fb5140"/>
 <path d="m2.8320312 2.0078125c-0.3759609-0.0343937-0.6139993 0.0503798-0.7460937 0.2597656-0.1411276 0.2237481-0.1053188 0.7966678 0.0878906 1.3671875 0.211138 0.6234943 0.7445268 1.6453231 1.2050781 2.3964844 0.7217103-1.1191067 1.8360651-1.9581545 3.1484376-2.3242188-0.04337-0.0297291-0.0710075-0.0510984-0.1230469-0.0859374-1.0970494-0.7351183-2.3522149-1.3470625-3.1503907-1.5390626-0.1569674-0.0359058-0.2965458-0.0666587-0.421875-0.0742187zm10.335938 0c-0.125329 0.00756-0.264908 0.0383128-0.421875 0.0742187-0.798176 0.1920001-2.053341 0.8039444-3.1503909 1.5390626-0.558342 0.3737952-0.5958732 0.4233832-0.5957031 0.8027343 1.323e-4 0.2709922 0.0214595 0.3604998 0.1582031 0.6445313 0.3786293 0.7851968 1.2251259 1.5879649 1.9492189 1.8476562 0.321223 0.1152756 0.732545 0.1112435 0.884766-0.0078125 0.382273-0.2997158 1.506166-2.3053871 1.833984-3.2734375 0.193209-0.5705197 0.229019-1.1434394 0.08789-1.3671875-0.132094-0.2093858-0.370132-0.2941593-0.746093-0.2597656zm-5.167969 1.9921875a5 5 0 0 0 -5 5 5 5 0 0 0 5 5 5 5 0 0 0 5 -5 5 5 0 0 0 -0.419922 -1.9882812c-0.081241 0.1060837-0.167047 0.2010532-0.279297 0.2890624v0.0019532c-0.246197 0.1925556-0.460958 0.1953156-0.683593 0.1972656-0.222638 0.0019481-0.451641-0.0321442-0.677735-0.1132812-0.915582-0.3283678-1.7831162-1.1738486-2.2304686-2.1015626-0.1454863-0.302191-0.208839-0.5635883-0.2089844-0.8613281-5.2e-5 -0.1159254 0.0154579-0.2529607 0.0507812-0.390625a5 5 0 0 0 -0.5507812 -0.0332031z" style="fill:#ffffff"/>
</svg>

<svg xmlns="http://www.w3.org/2000/svg" width="16" height="16" version="1.1" viewBox="0 0 16 16">
 <path style="fill:#fb5140" d="M 3.0052445,0.01636059 C 2.6358339,-0.01612597 2.2119532,-0.0144899 1.723439,0.15699629 1.2267747,0.33134356 0.70392258,0.73981921 0.41436112,1.2000446 -0.10648696,2.028035 -3.3421743e-4,2.492401 0.02865067,2.9482246 0.05763556,3.4040481 0.15001337,3.8321127 0.2994272,4.2744974 0.59728357,5.156439 1.1207965,5.9927793 1.6124012,6.7942207 1.363588,7.5196569 1.0197437,8.2223151 1.0182512,8.9955603 v 0.00391 C 1.0182512,12.842063 4.1677142,16 8.0000001,16 c 3.8322859,0 6.9817489,-3.157937 6.9817489,-7.0005332 3e-6,-0.00195 3e-6,-0.00391 0,-0.00586 -0.0023,-0.773686 -0.346229,-1.4757904 -0.596098,-2.2013389 0.491654,-0.801133 1.016932,-1.6354329 1.314922,-2.51777 0.149413,-0.4423832 0.241792,-0.8704487 0.270777,-1.3262728 0.02898,-0.4558242 0.135144,-0.920187 -0.385711,-1.74818 -0.289561,-0.46022604 -0.812413,-0.86870073 -1.309078,-1.04304831 -0.488515,-0.1714865 -0.912395,-0.17312226 -1.281806,-0.1406357 -0.328038,0.02440702 -0.548066,0.07920522 -0.705187,0.11524315 -0.0072,0.001263 -0.01429,0.002565 -0.02142,0.003906 C 10.99732,0.44202792 9.7345935,1.1157519 8.4811682,1.957915 8.4573032,1.973934 8.4282042,2.025406 8.4032472,2.041905 8.2694805,2.033865 8.1380464,1.999242 8.0038962,1.998933 c -0.00519,-2.03e-5 -0.01039,-2.03e-5 -0.015584,0 C 7.8565091,1.9997184 7.7281614,2.0356079 7.5967574,2.0438588 7.5713355,2.026952 7.5431253,1.9742194 7.5188361,1.9579148 6.2654107,1.1157513 5.0026844,0.44202769 3.7318607,0.13551028 3.724725,0.13416901 3.7175822,0.13286681 3.7104324,0.13160374 3.5533124,0.09556627 3.3332834,0.04076762 3.0052445,0.01636059 Z"/>
 <path style="fill:#ffffff" d="M 2.8320312 2.0078125 C 2.4560703 1.9734188 2.2180319 2.0581923 2.0859375 2.2675781 C 1.9448099 2.4913262 1.9806187 3.0642459 2.1738281 3.6347656 C 2.3849661 4.2582599 2.9183549 5.2800887 3.3789062 6.03125 C 4.1006165 4.9121433 5.2149713 4.0730955 6.5273438 3.7070312 C 6.4839738 3.6773021 6.4563363 3.6559328 6.4042969 3.6210938 C 5.3072475 2.8859755 4.052082 2.2740313 3.2539062 2.0820312 C 3.0969388 2.0461254 2.9573604 2.0153725 2.8320312 2.0078125 z M 13.167969 2.0078125 C 13.04264 2.0153725 12.903061 2.0461253 12.746094 2.0820312 C 11.947918 2.2740313 10.692753 2.8859756 9.5957031 3.6210938 C 9.0373611 3.994889 8.9998299 4.044477 9 4.4238281 C 9.0001323 4.6948203 9.0214595 4.7843279 9.1582031 5.0683594 C 9.5368324 5.8535562 10.383329 6.6563243 11.107422 6.9160156 C 11.428645 7.0312912 11.839967 7.0272591 11.992188 6.9082031 C 12.374461 6.6084873 13.498354 4.602816 13.826172 3.6347656 C 14.019381 3.0642459 14.055191 2.4913262 13.914062 2.2675781 C 13.781968 2.0581923 13.54393 1.9734188 13.167969 2.0078125 z M 8 4 A 5 5 0 0 0 3 9 A 5 5 0 0 0 8 14 A 5 5 0 0 0 13 9 A 5 5 0 0 0 12.580078 7.0117188 C 12.498837 7.1178025 12.413031 7.212772 12.300781 7.3007812 L 12.300781 7.3027344 C 12.054584 7.49529 11.839823 7.49805 11.617188 7.5 C 11.39455 7.5019481 11.165547 7.4678558 10.939453 7.3867188 C 10.023871 7.058351 9.1563368 6.2128702 8.7089844 5.2851562 C 8.5634981 4.9829652 8.5001454 4.7215679 8.5 4.4238281 C 8.499948 4.3079027 8.5154579 4.1708674 8.5507812 4.0332031 A 5 5 0 0 0 8 4 z"/>
</svg>
